64x64/apps/net.sourceforge.Teo.svg

<svg xmlns="http://www.w3.org/2000/svg" width="64" height="64" version="1">
 <rect style="fill:#f4f4f7" width="30.8" height="31.262" x="16.6" y="16.37"/>
 <path style="opacity:0.2" d="m 32.050782,6.0019044 c -0.16908,-0.00684 -0.336588,0.01956 -0.496094,0.078122 L 4.8867215,15.856834 c -0.5326147,0.195612 -0.8871199,0.719039 -0.8867187,1.304617 v 11.612648 c -5.886e-4,0.954425 0.9091783,1.623251 1.7773436,1.304615 l 4.2226556,-1.550695 v 8.944823 L 5.7773464,35.922146 c -0.8681653,-0.318638 -1.7779322,0.35019 -1.7773436,1.304616 v 11.612647 c -4.012e-4,0.585577 0.354104,1.109003 0.8867187,1.304617 l 26.6679665,9.776809 c 0.1595,0.05848 0.327014,0.08492 0.496094,0.07812 0.13412,-0.0054 0.26799,-0.03166 0.39453,-0.07812 l 26.667967,-9.776809 c 0.532614,-0.195614 0.88712,-0.719042 0.886718,-1.304617 V 37.226762 c 5.88e-4,-0.954424 -0.90918,-1.623252 -1.777344,-1.304616 l -4.222655,1.550696 v -8.944823 l 4.222655,1.550695 c 0.868164,0.318636 1.777932,-0.350192 1.777344,-1.304615 V 17.161451 c 4.02e-4,-0.585576 -0.354104,-1.109006 -0.886718,-1.304617 L 32.445312,6.0800252 c -0.12654,-0.04645 -0.260402,-0.072694 -0.39453,-0.078121 z M 32,20.458145 43.999999,24.860251 V 41.140609 L 32,45.542713 20.000001,41.140609 V 24.860251 Z"/>
 <rect style="fill:#3b5ade" width="10" height="23.999" x="44" y="19"/>
 <path style="fill:#3b5ade" d="m 32.052084,5.0021126 c -0.16908,-0.00684 -0.33789,0.0197 -0.497396,0.07826 L 4.8880239,14.857602 C 4.3554092,15.053214 3.999602,15.575473 4.0000032,16.16105 v 11.612693 c -5.886e-4,0.954426 0.9104803,1.62209 1.7786456,1.303452 L 32,19.459188 58.221353,29.077195 c 0.868164,0.318636 1.779232,-0.349028 1.778644,-1.303452 V 16.16105 c 4.02e-4,-0.585575 -0.355406,-1.107837 -0.88802,-1.303448 L 32.445312,5.0803738 c -0.12654,-0.04645 -0.2591,-0.072834 -0.393228,-0.078261 z"/>
 <rect style="fill:#3b5ade" width="10" height="23.999" x="10" y="19"/>
 <path style="fill:#3b5ade" d="m 32.052084,58.997062 c -0.16908,0.0068 -0.33789,-0.0198 -0.497396,-0.07828 L 4.8880239,49.141571 C 4.3554092,48.945959 3.999602,48.423699 4.0000032,47.838121 V 36.225424 c -5.886e-4,-0.954426 0.9104803,-1.622086 1.7786456,-1.30345 L 32,44.539983 58.221353,34.921974 c 0.868164,-0.318634 1.779232,0.349026 1.778644,1.30345 v 11.612697 c 4.02e-4,0.585576 -0.355406,1.107838 -0.88802,1.30345 L 32.445312,58.9188 c -0.12654,0.04646 -0.2591,0.07284 -0.393228,0.07828 z"/>
 <path style="opacity:0.1;fill:#f4f4f7" d="M 32.050781 5.0019531 C 31.881701 4.9951131 31.714193 5.0215181 31.554688 5.0800781 L 4.8867188 14.855469 C 4.3541041 15.051081 3.9995988 15.574579 4 16.160156 L 4 17.160156 C 3.9995988 16.574579 4.3541041 16.051081 4.8867188 15.855469 L 31.554688 6.0800781 C 31.714193 6.0215181 31.881701 5.9951131 32.050781 6.0019531 C 32.184909 6.0073797 32.318773 6.0336281 32.445312 6.0800781 L 59.113281 15.855469 C 59.645895 16.05108 60.000402 16.574581 60 17.160156 L 60 16.160156 C 60.000402 15.574581 59.645895 15.05108 59.113281 14.855469 L 32.445312 5.0800781 C 32.318773 5.0336281 32.184909 5.0073797 32.050781 5.0019531 z M 5.4511719 34.845703 C 5.3430902 34.834961 5.2364962 34.839069 5.1328125 34.855469 C 4.5107109 34.953889 3.9995586 35.510744 4 36.226562 L 4 37.226562 C 3.9995586 36.510744 4.5107109 35.953889 5.1328125 35.855469 C 5.3401799 35.822669 5.5603023 35.842215 5.7773438 35.921875 L 10 37.472656 L 10 36.472656 L 5.7773438 34.921875 C 5.6688231 34.882045 5.5592536 34.856446 5.4511719 34.845703 z M 58.548828 34.845703 C 58.440746 34.856453 58.331177 34.882075 58.222656 34.921875 L 54 36.472656 L 54 37.472656 L 58.222656 35.921875 C 58.439698 35.842275 58.659819 35.822669 58.867188 35.855469 C 59.489288 35.953891 60.000442 36.510747 60 37.226562 L 60 36.226562 C 60.000442 35.510747 59.489288 34.953891 58.867188 34.855469 C 58.763503 34.839069 58.65691 34.834953 58.548828 34.845703 z M 20 40.140625 L 20 41.140625 L 32 45.542969 L 44 41.140625 L 44 40.140625 L 32 44.541016 L 20 40.140625 z"/>
 <path style="opacity:0.2" d="m 7.0000025,39.564897 v 8.155806 L 32,56.88817 v -8.351105 c -0.351624,9.94e-4 -0.700686,-0.05982 -1.03125,-0.17968 z"/>
 <path style="fill:#b6afff" d="m 7.0000025,38.565632 v 8.155803 L 32,55.888902 v -8.351105 c -0.351624,9.96e-4 -0.700686,-0.05982 -1.03125,-0.17968 z"/>
 <path style="opacity:0.2" d="m 32,9.1095304 v 8.3511056 a 3.0002997,3.0001361 0 0 1 1.03125,0.179678 l 23.968747,8.792489 v -8.155805 z"/>
 <path style="fill:#b6afff" d="m 32,8.1102629 v 8.3511061 a 3.0002997,3.0001361 0 0 1 1.03125,0.179678 l 23.968747,8.79249 v -8.155806 z"/>
</svg>

<svg xmlns="http://www.w3.org/2000/svg" width="64" height="64" version="1"><path style="fill:#f4f4f7" d="M16.6 16.37h30.8v31.262H16.6z"/><path style="opacity:.2" d="M32.05 6.002c-.168-.007-.336.02-.495.078L4.887 15.857A1.38 1.38 0 0 0 4 17.16v11.613c0 .955.91 1.623 1.777 1.305L10 28.528v8.945l-4.223-1.55C4.91 35.602 4 36.272 4 37.226v11.612c0 .586.354 1.11.887 1.305l26.668 9.777a1.287 1.287 0 0 0 .89 0l26.668-9.777A1.38 1.38 0 0 0 60 48.839V37.227c0-.955-.91-1.623-1.777-1.305L54 37.472v-8.944l4.223 1.55c.868.32 1.778-.35 1.777-1.304V17.161a1.38 1.38 0 0 0-.887-1.304L32.445 6.08a1.3 1.3 0 0 0-.394-.078zM32 20.458l12 4.402v16.28l-12 4.403-12-4.402V24.86z"/><path style="fill:#3b5ade" d="M44 19h10v23.999H44z"/><path style="fill:#3b5ade" d="M32.052 5.002c-.169-.007-.338.02-.497.078L4.888 14.858A1.38 1.38 0 0 0 4 16.16v11.613c0 .954.91 1.622 1.779 1.303L32 19.46l26.221 9.618c.869.319 1.78-.349 1.779-1.303V16.16a1.38 1.38 0 0 0-.888-1.303L32.445 5.08a1.292 1.292 0 0 0-.393-.078z"/><path style="fill:#3b5ade" d="M10 19h10v23.999H10z"/><path style="fill:#3b5ade" d="M32.052 58.997c-.169.007-.338-.02-.497-.078L4.888 49.142A1.38 1.38 0 0 1 4 47.838V36.225c0-.954.91-1.622 1.779-1.303L32 44.54l26.221-9.618c.869-.319 1.78.349 1.779 1.303v11.613a1.38 1.38 0 0 1-.888 1.304l-26.667 9.777c-.126.046-.259.073-.393.078z"/><path style="opacity:.1;fill:#f4f4f7" d="M32.05 5.002c-.168-.007-.336.02-.495.078L4.887 14.855A1.38 1.38 0 0 0 4 16.16v1c0-.585.354-1.109.887-1.305L31.555 6.08a1.284 1.284 0 0 1 .89 0l26.668 9.775c.533.196.887.72.887 1.305v-1a1.38 1.38 0 0 0-.887-1.305L32.445 5.08a1.3 1.3 0 0 0-.394-.078zM5.452 34.846a1.245 1.245 0 0 0-.318.01C4.51 34.953 4 35.51 4 36.225v1c0-.715.51-1.272 1.133-1.37.207-.033.427-.014.644.066L10 37.472v-1l-4.223-1.55a1.33 1.33 0 0 0-.326-.076zm53.098 0c-.108.01-.218.036-.326.076L54 36.472v1l4.223-1.55c.217-.08.437-.1.644-.067.622.099 1.133.656 1.133 1.372v-1c0-.716-.51-1.273-1.133-1.372a1.245 1.245 0 0 0-.318-.01zM20 40.14v1l12 4.402 12-4.402v-1l-12 4.4-12-4.4z"/><path style="opacity:.2" d="M7 39.565v8.156l25 9.167v-8.35a3 3 0 0 1-1.031-.18z"/><path style="fill:#b6afff" d="M7 38.566v8.155l25 9.168v-8.351a3 3 0 0 1-1.031-.18z"/><path style="opacity:.2" d="M32 9.11v8.35a3 3 0 0 1 1.031.18L57 26.433v-8.156z"/><path style="fill:#b6afff" d="M32 8.11v8.351a3 3 0 0 1 1.031.18L57 25.434v-8.156z"/></svg>
